local/share/icons/dracula-icons-main/scalable/mimetypes/application-x-rpm.svg

<?xml version="1.0" encoding="UTF-8"?>
<svg xmlns="http://www.w3.org/2000/svg" xmlns:xlink="http://www.w3.org/1999/xlink" width="64" height="64" viewBox="0 0 64 64">
<defs>
<filter id="filter-remove-color" x="0%" y="0%" width="100%" height="100%">
<feColorMatrix color-interpolation-filters="sRGB" values="0 0 0 0 1 0 0 0 0 1 0 0 0 0 1 0 0 0 1 0" />
</filter>
<mask id="mask-0">
<g filter="url(#filter-remove-color)">
<rect x="-6.4" y="-6.4" width="76.8" height="76.8" fill="rgb(0%, 0%, 0%)" fill-opacity="0.15"/>
</g>
</mask>
<linearGradient id="linear-pattern-0" gradientUnits="userSpaceOnUse" x1="49.570999" y1="52.714001" x2="51.714001" y2="54.856998" gradientTransform="matrix(0.61734, 0, 0, 0.61734, -18.167999, -19.049999)">
<stop offset="0" stop-color="rgb(0%, 0%, 0%)" stop-opacity="1"/>
<stop offset="1" stop-color="rgb(0%, 0%, 0%)" stop-opacity="0"/>
</linearGradient>
<clipPath id="clip-0">
<rect x="0" y="0" width="17" height="17"/>
</clipPath>
<g id="source-15294" clip-path="url(#clip-0)">
<path fill-rule="evenodd" fill="url(#linear-pattern-0)" d="M 14.816406 12.171875 L 11.113281 15.875 L 13.492188 15.875 C 14.226562 15.875 14.816406 15.285156 14.816406 14.550781 Z M 14.816406 12.171875 "/>
</g>
<mask id="mask-1">
<g filter="url(#filter-remove-color)">
<rect x="-6.4" y="-6.4" width="76.8" height="76.8" fill="rgb(0%, 0%, 0%)" fill-opacity="0.35"/>
</g>
</mask>
<clipPath id="clip-1">
<rect x="0" y="0" width="17" height="17"/>
</clipPath>
<g id="source-15302" clip-path="url(#clip-1)">
<path fill-rule="nonzero" fill="rgb(100%, 100%, 100%)" fill-opacity="1" d="M 5.160156 9.128906 C 4.011719 9.128906 2.914062 9.59375 2.117188 10.417969 L 2.117188 11.25 C 2.808594 10.253906 3.945312 9.65625 5.160156 9.65625 C 7.207031 9.65625 8.863281 11.316406 8.863281 13.359375 C 8.863281 14.292969 8.507812 15.191406 7.875 15.875 L 8.558594 15.875 C 9.097656 15.148438 9.390625 14.265625 9.394531 13.359375 C 9.394531 11.023438 7.496094 9.128906 5.160156 9.128906 Z M 5.160156 9.128906 "/>
<path fill-rule="nonzero" fill="rgb(100%, 100%, 100%)" fill-opacity="1" d="M 5.160156 10.714844 C 4.511719 10.714844 3.886719 10.957031 3.402344 11.386719 L 3.78125 11.761719 C 4.164062 11.429688 4.652344 11.246094 5.160156 11.246094 C 6.328125 11.246094 7.277344 12.191406 7.277344 13.359375 L 7.804688 13.359375 C 7.804688 11.898438 6.621094 10.714844 5.160156 10.714844 Z M 2.765625 12.242188 C 2.601562 12.59375 2.515625 12.976562 2.515625 13.359375 L 3.042969 13.359375 C 3.042969 13.117188 3.085938 12.875 3.167969 12.648438 Z M 2.765625 12.242188 "/>
<path fill-rule="nonzero" fill="rgb(100%, 100%, 100%)" fill-opacity="1" d="M 5.871094 11.859375 L 4.734375 14.496094 C 4.660156 14.582031 4.609375 14.691406 4.589844 14.804688 L 4.585938 14.8125 C 4.539062 15.109375 4.703125 15.386719 4.96875 15.453125 C 5.230469 15.519531 5.507812 15.351562 5.609375 15.070312 L 5.609375 15.054688 L 5.625 15.015625 C 5.648438 14.917969 5.648438 14.816406 5.628906 14.722656 Z M 5.871094 11.859375 "/>
</g>
</defs>
<path fill-rule="nonzero" fill="rgb(98.039216%, 41.568627%, 36.470588%)" fill-opacity="1" d="M 3.441406 1.058594 L 13.492188 1.058594 C 14.222656 1.058594 14.816406 1.652344 14.816406 2.382812 L 14.816406 14.550781 C 14.816406 15.28125 14.222656 15.875 13.492188 15.875 L 3.441406 15.875 C 2.707031 15.875 2.117188 15.28125 2.117188 14.550781 L 2.117188 2.382812 C 2.117188 1.652344 2.707031 1.058594 3.441406 1.058594 Z M 3.441406 1.058594 "/>
<g mask="url(#mask-0)">
<use xlink:href="#source-15294"/>
</g>
<path fill-rule="nonzero" fill="rgb(100%, 100%, 100%)" fill-opacity="1" d="M 7.9375 6.613281 L 7.9375 8.335938 C 7.9375 8.40625 7.996094 8.464844 8.070312 8.464844 L 8.863281 8.464844 C 8.9375 8.464844 8.996094 8.40625 8.996094 8.335938 L 8.996094 6.613281 Z M 8.203125 7.671875 L 8.730469 7.671875 L 8.730469 8.203125 L 8.203125 8.203125 Z M 8.203125 7.671875 "/>
<path fill-rule="nonzero" fill="rgb(100%, 100%, 100%)" fill-opacity="1" d="M 8.46875 1.058594 L 7.9375 1.058594 L 7.9375 1.585938 L 8.46875 1.585938 Z M 8.46875 1.585938 L 8.46875 2.117188 L 8.996094 2.117188 L 8.996094 1.585938 Z M 8.46875 2.117188 L 7.9375 2.117188 L 7.9375 2.644531 L 8.46875 2.644531 Z M 8.46875 2.644531 L 8.46875 3.175781 L 8.996094 3.175781 L 8.996094 2.644531 Z M 8.46875 3.175781 L 7.9375 3.175781 L 7.9375 3.703125 L 8.46875 3.703125 Z M 8.46875 3.703125 L 8.46875 4.234375 L 8.996094 4.234375 L 8.996094 3.703125 Z M 8.46875 4.234375 L 7.9375 4.234375 L 7.9375 4.761719 L 8.46875 4.761719 Z M 8.46875 4.761719 L 8.46875 5.292969 L 8.996094 5.292969 L 8.996094 4.761719 Z M 8.46875 5.292969 L 7.9375 5.292969 L 7.9375 5.820312 L 8.46875 5.820312 Z M 8.46875 5.820312 L 8.46875 6.351562 L 8.996094 6.351562 L 8.996094 5.820312 Z M 8.46875 5.820312 "/>
<g mask="url(#mask-1)">
<use xlink:href="#source-15302"/>
</g>
</svg>

<svg width="64" height="64" version="1.1" viewBox="0 0 16.933 16.933" xmlns="http://www.w3.org/2000/svg">
 <defs>
  <linearGradient id="a" x1="49.571" x2="51.714" y1="52.714" y2="54.857" gradientTransform="matrix(.61734 0 0 .61734 -18.168 -19.05)" gradientUnits="userSpaceOnUse">
   <stop offset="0"/>
   <stop stop-opacity="0" offset="1"/>
  </linearGradient>
 </defs>
 <rect x="2.1166" y="1.0583" width="12.7" height="14.816" ry="1.3229" fill="#fa6a5d" stroke-width=".26458" style="paint-order:stroke fill markers"/>
 <path d="m14.816 12.171-3.7041 3.7041h2.3812c0.73289 0 1.3229-0.59001 1.3229-1.3229z" fill="url(#a)" fill-rule="evenodd" opacity=".15" stroke-width="2.3334" style="paint-order:stroke fill markers"/>
 <g fill="#fff">
  <path d="m7.938 6.6145v1.7198c0 0.073288 0.059 0.13229 0.13229 0.13229h0.79374c0.07329 0 0.13229-0.059001 0.13229-0.13229v-1.7198zm0.26458 1.0583h0.52916v0.52916h-0.52916z" color="#000000"/>
  <path d="m8.467 1.0583h-0.52916v0.52916h0.52916zm0 0.52916v0.52916h0.52916v-0.52916zm0 0.52916h-0.52916v0.52916h0.52916zm0 0.52916v0.52916h0.52916v-0.52916zm0 0.52916h-0.52916v0.52916h0.52916zm0 0.52916v0.52916h0.52916v-0.52916zm0 0.52916h-0.52916v0.52916h0.52916zm0 0.52916v0.52916h0.52916v-0.52916zm0 0.52916h-0.52916v0.52916h0.52916zm0 0.52916v0.52916h0.52916v-0.52916z" color="#000000"/>
  <g transform="matrix(.52916 0 0 .52916 -.66086 7.5402)" opacity=".35" stroke-width="1.1429">
   <path transform="matrix(.5 0 0 .5 1.2489 -14.249)" d="m19.502 34.498a16 16 0 0 0-11.502 4.8828v3.1445a14 14 0 0 1 11.502-6.0273 14 14 0 0 1 14 14 14 14 0 0 1-3.7422 9.502h2.5938a16 16 0 0 0 3.1484-9.502 16 16 0 0 0-16-16z" stroke-width="2.2858"/>
   <path d="m11 6a5 5 0 0 0-3.318 1.268l0.709 0.709a4 4 0 0 1 2.609-0.977 4 4 0 0 1 4 4h1a5 5 0 0 0-5-5zm-4.525 2.889a5 5 0 0 0-0.475 2.111h1a4 4 0 0 1 0.238-1.348z"/>
   <path d="m12.344 8.166-2.146 4.977a1.2 1.2 0 0 0-0.278 0.585l-7e-3 0.014h6e-3c-0.09 0.562 0.221 1.086 0.719 1.212 0.499 0.126 1.021-0.19 1.208-0.727l7e-3 2e-3v-0.03l0.024-0.075c0.044-0.182 0.047-0.371 7e-3 -0.55z"/>
  </g>
 </g>
</svg>
